svg/file/inbox_line.svg

<?xml version="1.0" encoding="UTF-8"?>
<svg width="24px" height="24px" viewBox="0 0 24 24" version="1.1" xmlns="http://www.w3.org/2000/svg" xmlns:xlink="http://www.w3.org/1999/xlink">
    <title>inbox_line</title>
    <g id="页面-1" stroke="none" stroke-width="1" fill="none" fill-rule="evenodd">
        <g id="File" transform="translate(-624.000000, 0.000000)" fill-rule="nonzero">
            <g id="inbox_line" transform="translate(624.000000, 0.000000)">
                 <path d="M24,0 L24,24 L0,24 L0,0 L24,0 Z M12.5934901,23.257841 L12.5819402,23.2595131 L12.5108777,23.2950439 L12.4918791,23.2987469 L12.4918791,23.2987469 L12.4767152,23.2950439 L12.4056548,23.2595131 C12.3958229,23.2563662 12.3870493,23.2590235 12.3821421,23.2649074 L12.3780323,23.275831 L12.360941,23.7031097 L12.3658947,23.7234994 L12.3769048,23.7357139 L12.4804777,23.8096931 L12.4953491,23.8136134 L12.4953491,23.8136134 L12.5071152,23.8096931 L12.6106902,23.7357139 L12.6232938,23.7196733 L12.6232938,23.7196733 L12.6266527,23.7031097 L12.609561,23.275831 C12.6075724,23.2657013 12.6010112,23.2592993 12.5934901,23.257841 L12.5934901,23.257841 Z M12.8583906,23.1452862 L12.8445485,23.1473072 L12.6598443,23.2396597 L12.6498822,23.2499052 L12.6498822,23.2499052 L12.6471943,23.2611114 L12.6650943,23.6906389 L12.6699349,23.7034178 L12.6699349,23.7034178 L12.678386,23.7104931 L12.8793402,23.8032389 C12.8914285,23.8068999 12.9022333,23.8029875 12.9078286,23.7952264 L12.9118235,23.7811639 L12.8776777,23.1665331 C12.8752882,23.1545897 12.8674102,23.1470016 12.8583906,23.1452862 L12.8583906,23.1452862 Z M12.1430473,23.1473072 C12.1332178,23.1423925 12.1221763,23.1452606 12.1156365,23.1525954 L12.1099173,23.1665331 L12.0757714,23.7811639 C12.0751323,23.7926639 12.0828099,23.8018602 12.0926481,23.8045676 L12.108256,23.8032389 L12.3092106,23.7104931 L12.3186497,23.7024347 L12.3186497,23.7024347 L12.3225043,23.6906389 L12.340401,23.2611114 L12.337245,23.2485176 L12.337245,23.2485176 L12.3277531,23.2396597 L12.1430473,23.1473072 Z" id="MingCute" fill-rule="nonzero"></path>
                <path d="M16.382,4 C17.0853929,4 17.7327398,4.36904082 18.0928914,4.9642614 L18.1708,5.10557 L21.6833,12.1305 C21.8568833,12.4776667 21.9610917,12.8544861 21.991006,13.2399514 L22,13.4721 L22,19 C22,20.0543909 21.18415,20.9181678 20.1492661,20.9945144 L20,21 L4,21 C2.94563773,21 2.08183483,20.18415 2.00548573,19.1492661 L2,19 L2,13.4721 C2,13.0840167 2.07530556,12.7003778 2.22093981,12.3421903 L2.31672,12.1305 L5.82918,5.10557 C6.14376143,4.47639786 6.76336199,4.06241617 7.45680028,4.00648599 L7.61803,4 L16.382,4 Z M8,14 L4,14 L4,19 L20,19 L20,14 L16,14 L16,14.5 C16,15.3284 15.3284,16 14.5,16 L9.5,16 C8.67157,16 8,15.3284 8,14.5 L8,14 Z M16.382,6 L7.61803,6 L4.61803,12 L8.5,12 C9.27969882,12 9.920449,12.5949121 9.99313345,13.3555442 L10,13.5 L10,14 L14,14 L14,13.5 C14,12.7203294 14.5949121,12.0795543 15.3555442,12.0068668 L15.5,12 L19.382,12 L16.382,6 Z" id="形状" fill="#09244B"></path>
            </g>
        </g>
    </g>
</svg>

<svg xmlns="http://www.w3.org/2000/svg" width="24" height="24"><g fill="none" fill-rule="nonzero"><path d="M24 0v24H0V0h24ZM12.593 23.258l-.011.002-.071.035-.02.004-.014-.004-.071-.035c-.01-.004-.019-.001-.024.005l-.004.01-.017.428.005.02.01.013.104.074.015.004.012-.004.104-.074.012-.016.004-.017-.017-.427c-.002-.01-.009-.017-.017-.018Zm.265-.113-.013.002-.185.093-.01.01-.003.011.018.43.005.012.008.007.201.093c.012.004.023 0 .029-.008l.004-.014-.034-.614c-.003-.012-.01-.02-.02-.022Zm-.715.002a.023.023 0 0 0-.027.006l-.006.014-.034.614c0 .012.007.02.017.024l.015-.002.201-.093.01-.008.004-.011.017-.43-.003-.012-.01-.01-.184-.092Z"/><path fill="#09244B" d="M16.382 4a2 2 0 0 1 1.71.964l.079.142 3.512 7.025a3 3 0 0 1 .308 1.109l.009.232V19a2 2 0 0 1-1.85 1.995L20 21H4a2 2 0 0 1-1.995-1.85L2 19v-5.528a3 3 0 0 1 .22-1.13l.097-.212 3.512-7.024a2 2 0 0 1 1.628-1.1L7.618 4h8.764ZM8 14H4v5h16v-5h-4v.5a1.5 1.5 0 0 1-1.5 1.5h-5A1.5 1.5 0 0 1 8 14.5V14Zm8.382-8H7.618l-3 6H8.5a1.5 1.5 0 0 1 1.493 1.356L10 13.5v.5h4v-.5a1.5 1.5 0 0 1 1.356-1.493L15.5 12h3.882l-3-6Z"/></g></svg>
